Resources/Public/Images/Icons/Glyphicons/transfer.svg

<svg xmlns="http://www.w3.org/2000/svg" width="32" height="32"><path d="M24.4 3.1l6.2 5.8c.3.2.4.5.4.8s-.1.6-.4.9l-6.2 5.8c-.2.2-.4.3-.6.3-.2-.1-.3-.3-.3-.6v-3.8h-10v-5h10.1V3.4c0-.4.1-.6.3-.6.1-.1.3 0 .5.3zM5.9 12.2H4.7c-.4 0-.6-.1-.9-.4s-.4-.5-.4-.8V8.5c0-.4.1-.6.4-.9.2-.3.5-.4.9-.4H6v5h-.1zm5.1 0H8.5v-5H11v5zm-9.6 9.2l6.2-5.8c.2-.2.4-.3.6-.3.2.1.3.3.3.6v3.8h10.1v5H8.5v3.8c0 .4-.1.6-.3.6s-.4 0-.6-.3L1.4 23c-.3-.1-.4-.4-.4-.7 0-.4.1-.7.4-.9zm22.1 3.4H21v-5h2.5v5zm2.6-5h1.3c.3 0 .6.1.9.4.2.2.4.5.4.9v2.5c0 .4-.1.6-.4.9s-.5.4-.9.4h-1.3v-5.1z"/></svg>

<?xml version="1.0" encoding="utf-8"?>
<!-- Generator: Adobe Illustrator 22.1.0, SVG Export Plug-In . SVG Version: 6.00 Build 0)  -->
<svg version="1.1" id="Ebene_1" xmlns="http://www.w3.org/2000/svg" xmlns:xlink="http://www.w3.org/1999/xlink" x="0px" y="0px"
	 width="32px" height="32px" viewBox="0 0 32 32" style="enable-background:new 0 0 32 32;" xml:space="preserve">
<path d="M24.4,3.1l6.2,5.8C30.9,9.1,31,9.4,31,9.7s-0.1,0.6-0.4,0.9l-6.2,5.8c-0.2,0.2-0.4,0.3-0.6,0.3c-0.2-0.1-0.3-0.3-0.3-0.6
	v-3.8H13.5v-5h10.1V3.4c0-0.4,0.1-0.6,0.3-0.6C24,2.7,24.2,2.8,24.4,3.1L24.4,3.1z M5.9,12.2H4.7c-0.4,0-0.6-0.1-0.9-0.4
	S3.4,11.3,3.4,11V8.5c0-0.4,0.1-0.6,0.4-0.9C4,7.3,4.3,7.2,4.7,7.2h1.3V12.2L5.9,12.2z M11,12.2H8.5v-5H11V12.2z M1.4,21.4l6.2-5.8
	c0.2-0.2,0.4-0.3,0.6-0.3c0.2,0.1,0.3,0.3,0.3,0.6v3.8h10.1v5H8.5v3.8c0,0.4-0.1,0.6-0.3,0.6s-0.4,0-0.6-0.3l-6.2-5.8
	C1.1,22.9,1,22.6,1,22.3C1,21.9,1.1,21.6,1.4,21.4L1.4,21.4z M23.5,24.8H21v-5h2.5V24.8z M26.1,19.8h1.3c0.3,0,0.6,0.1,0.9,0.4
	c0.2,0.2,0.4,0.5,0.4,0.9v2.5c0,0.4-0.1,0.6-0.4,0.9s-0.5,0.4-0.9,0.4h-1.3V19.8L26.1,19.8z"/>
</svg>
